packages/gestalt-icons-android/vr-theme/ic_vr_workflow-status-queued_gestalt.svg

<svg width="24" height="24" viewBox="0 0 24 24" fill="none" xmlns="http://www.w3.org/2000/svg">
<path fill-rule="evenodd" clip-rule="evenodd" d="M5.13148 2L5.04071 2.13616C4.36212 3.15405 4 4.35004 4 5.5734C4 8.0522 5.47724 10.2925 7.75563 11.2689L9.46141 12L7.75563 12.7311C5.47724 13.7075 4 15.9478 4 18.4266C4 19.65 4.36212 20.8459 5.04071 21.8638L5.13148 22H3V24H21V22H18.8685L18.9593 21.8638C19.6379 20.8459 20 19.65 20 18.4266C20 15.9478 18.5228 13.7075 16.2444 12.7311L14.5386 12L16.2444 11.2689C18.5228 10.2925 20 8.0522 20 5.5734C20 4.35004 19.6379 3.15405 18.9593 2.13616L18.8685 2H21V0H3V2H5.13148ZM7.77352 9C6.67594 8.22402 6 6.95328 6 5.5734C6 4.74489 6.24524 3.93492 6.70481 3.24555L6.94145 2.8906C7.31238 2.3342 7.93684 2 8.60555 2H15.3944C16.0632 2 16.6876 2.3342 17.0585 2.8906L17.2952 3.24555C17.7548 3.93492 18 4.74489 18 5.5734C18 6.95328 17.3241 8.22402 16.2265 9H7.77352ZM8.60555 22C7.93684 22 7.31238 21.6658 6.94145 21.1094L6.70481 20.7544C6.24524 20.0651 6 19.2551 6 18.4266C6 16.7479 7.00045 15.2306 8.54346 14.5693L11 13.5165V20H13V13.5165L15.4565 14.5693C16.9995 15.2306 18 16.7479 18 18.4266C18 19.2551 17.7548 20.0651 17.2952 20.7544L17.0585 21.1094C16.6876 21.6658 16.0632 22 15.3944 22H8.60555Z" fill="black"/>
</svg>

<svg xmlns="http://www.w3.org/2000/svg" width="24" height="24"><path d="m5.13 2-.09.14a6.2 6.2 0 0 0 2.72 9.13l1.7.73-1.7.73a6.2 6.2 0 0 0-2.72 9.13l.1.14H3v2h18v-2h-2.13l.09-.14a6.2 6.2 0 0 0-2.72-9.13l-1.7-.73 1.7-.73a6.2 6.2 0 0 0 2.72-9.13l-.1-.14H21V0H3v2zm2.64 7A4.2 4.2 0 0 1 6.7 3.25l.24-.36A2 2 0 0 1 8.61 2h6.78a2 2 0 0 1 1.67.9l.24.35A4.2 4.2 0 0 1 16.23 9zm.84 13a2 2 0 0 1-1.67-.9l-.24-.35a4.2 4.2 0 0 1 1.84-6.18L11 13.52V20h2v-6.48l2.46 1.05a4.2 4.2 0 0 1 1.84 6.18l-.24.36a2 2 0 0 1-1.67.89z"/></svg>
